public/icon.svg

<svg width="512" height="512" fill="none" xmlns="http://www.w3.org/2000/svg"><style>:root { --light-blue: #43A7DF; --dark-blue: #166691; --yellow: #FFCC43; --black: #0D0810; } .contour-stroke { stroke: var(--black); } .contour-fill { fill: var(--black); }.back { fill: white; } .effect { fill: var(--light-blue); } .eye-effect { stroke: var(--light-blue); } .tail-effect { stroke: var(--light-blue); }@media (prefers-color-scheme: dark) { .back { fill: var(--light-blue); } .effect { fill: var(--dark-blue); } .eye-effect { stroke: var(--yellow); } .tail-effect { stroke: var(--dark-blue); } }</style><path class="back" d="M82 192.5c14.5-4.5 53.5 11 76 28.293l76-10.293 80 10.293c28.5-25 91.99-59.81 111.5-54.793 19.51 5.017 7.5 94.5 7.5 117 0 10.901 28.195 35.882 27.098 39.691C459 326.5 416.51 352.478 413 360.5c-3.5 8-4 30.911-21.5 57-40.839 60.882-240.886 53.138-288.5 4.589C73 391.5 73.5 374.959 73.5 339c0-5.348-27.5-20.5-27.5-24.675 0-4.175 24.528-13.391 23.5-21.325-3.5-27-.285-96.532 12.5-100.5z" fill="#fff"/><path class="effect" d="M124.127 363.855c2.758 1.213 2.206 5.28-.775 5.715l-47.813 6.975a3 3 0 01-3.406-3.372l3.585-26.433a3 3 0 014.181-2.343l44.228 19.458zM133.51 390.802c3.005.224 3.84 4.242 1.174 5.646l-42.752 22.515a3 3 0 01-4.335-2.044l-5.432-26.116a3 3 0 013.16-3.603l48.185 3.602zM320.568 219.463l96.09-60.172 12.03 19.211S398.882 191.065 379 204c-18.569 12.08-36.107 42.38-36.107 42.38l-22.325-26.917zM152.895 218.368l-68.52-28.618-5.625 18.125s22.53 2.718 32.5 10.493c9.681 7.549 22.955 29.295 22.955 29.295l18.69-29.295zM351.521 371.36c-2.953.741-3.052 4.9-.139 5.781l55.494 16.792a3 3 0 003.869-2.872v-30.715a3 3 0 00-3.73-2.91l-55.494 13.924zM332.694 399.871c-3.1.166-3.936 4.355-1.138 5.7l50.304 24.161a3 3 0 003.971-1.34l14.104-27.628c1.051-2.06-.524-4.484-2.833-4.36l-64.408 3.467z"/><path class="eye-effect" d="M135.528 280.685l-1.088 18.719c-.982 16.901 9.187 32.461 25.06 38.346M288.847 295.012l-1.088 18.72c-.982 16.9 9.186 32.46 25.059 38.346" stroke-width="20" stroke-linejoin="round"/><path class="contour-stroke" d="M121.482 285.998l71.402 4.15-.768 13.216c-1.146 19.717-18.059 34.772-37.776 33.626-19.717-1.146-34.772-18.058-33.626-37.775l.768-13.217zM272.565 292.736l89.879 4.669-.934 17.976c-1.146 22.062-19.96 39.017-42.021 37.871l-9.987-.519c-22.061-1.146-39.017-19.96-37.871-42.021l.934-17.976zM213.273 348.248l.153-1.994 21.936 1.681-.153 1.994c-.465 6.058-5.751 10.592-11.809 10.127-6.057-.464-10.591-5.751-10.127-11.808z" stroke-width="20" stroke-linejoin="round"/><path class="contour-stroke" d="M186.692 397.359s9.888-.301 20.82-9.937c10.932-9.637 14.18-34.517 14.18-34.517M253.994 402.519s-11.392-1.845-19.062-12.995c-7.67-11.15-8.753-36.275-8.753-36.275" stroke-width="20" stroke-linecap="round" stroke-linejoin="round"/><path class="contour-stroke" d="M158 220.793C135.5 203.5 96.5 188 82 192.5 69.215 196.468 66 266 69.5 293c1.028 7.934-23.5 17.149-23.5 21.325C46 318.5 73.5 333.652 73.5 339c0 35.959-.5 52.5 29.5 83.089 47.614 48.549 247.661 56.293 288.5-4.589 17.5-26.089 18-49 21.5-57 3.51-8.022 46-34 47.098-37.809C461.195 318.882 433 293.901 433 283c0-22.5 12.01-111.983-7.5-117-19.51-5.017-83 29.793-111.5 54.793" stroke-width="20" stroke-linecap="round" stroke-linejoin="round"/><path class="contour-stroke" d="M131 241.831S174.082 208.5 231.967 208.5c57.886 0 110.033 36 110.033 36" stroke-width="20" stroke-linecap="round"/><path class="back" d="M110.345 96.857a5 5 0 014.525-5.433l97.377-8.887c27.5-2.509 51.827 17.75 54.337 45.25l1.459 15.994a5 5 0 01-4.525 5.434l-97.376 8.886c-27.5 2.51-51.828-17.749-54.337-45.249l-1.46-15.995z"/><path class="back" d="M403.817 70.123a5 5 0 00-5.434-4.525l-95.608 8.725c-27.5 2.51-47.758 26.837-45.249 54.337l1.46 15.995a5 5 0 005.433 4.525l95.608-8.725c27.5-2.509 47.759-26.837 45.249-54.337l-1.459-15.995z"/><path class="tail-effect" d="M123.117 111.306l86.31-7.876c26.849-2.45 50.6 17.329 53.05 44.178M403.314 82.97l-91.538 8.353c-27.5 2.51-47.74 27.043-45.23 54.543" stroke-width="20"/><path class="contour-stroke" d="M121.764 111.943l-1.005-11.015 92.398-8.432c22-2.007 41.462 14.2 43.469 36.2l1.005 11.015-92.397 8.432c-22 2.007-41.462-14.2-43.47-36.2z" stroke-width="20"/><path class="contour-fill" d="M240.876 155.65c-5.14 2.019-7.671 7.823-5.653 12.963 2.019 5.141 7.823 7.672 12.963 5.654l-7.31-18.617zm22.366-4.032l8.304 5.573-8.304-5.573zm-15.056 22.649c10.402-4.085 17.976-9.054 23.36-17.076l-16.607-11.146c-2.304 3.433-5.814 6.366-14.063 9.605l7.31 18.617zm23.36-17.076c2.6-3.875 3.335-8.085 3.575-10.657.129-1.392.138-2.596.115-3.473a26.09 26.09 0 00-.095-1.609 4.452 4.452 0 00-.006-.054l-.002-.024-.002-.012v-.005c0-.003-.001-.005-9.943 1.065-9.943 1.071-9.943 1.068-9.943 1.066l-.001-.005-.001-.01-.002-.018a1.84 1.84 0 00-.003-.032l-.004-.042-.001-.011a9.383 9.383 0 01-.026 1.31c-.101 1.083-.339 1.471-.268 1.365l16.607 11.146z"/><path class="contour-stroke" d="M395.319 87.027l-1.006-11.016-90.628 8.27c-22 2.008-38.207 21.47-36.199 43.47l1.005 11.016 90.628-8.271c22-2.007 38.207-21.469 36.2-43.47z" stroke-width="20"/></svg>

<svg width="512" height="512" viewBox="0 0 512 512" fill="none" xmlns="http://www.w3.org/2000/svg">
    <style>
        :root {
            --light-blue: #43A7DF;
            --dark-blue: #166691;
            --yellow: #FFCC43;
            --black: #0D0810;
        }

        .contour-stroke {
            stroke: var(--black);
        }

        .contour-fill {
            fill: var(--black);
        }

        <!-- light -->

        .back {
            fill: white;
        }

        .effect {
            fill: var(--light-blue);
        }

        .eye-effect {
            stroke: var(--light-blue);
        }

        .tail-effect {
            stroke: var(--light-blue);
        }

        <!-- dark -->

        @media (prefers-color-scheme: dark) {
            .back {
                fill: var(--light-blue);
            }

            .effect {
                fill: var(--dark-blue);
            }

            .eye-effect {
                stroke: var(--yellow);
            }

            .tail-effect {
                stroke: var(--dark-blue);
            }
        }
    </style>

    <path class="back" d="M82 192.5C96.4999 188 135.5 203.5 158 220.793L234 210.5L314 220.793C342.5 195.793 405.99 160.983 425.5 166C445.01 171.017 433 260.5 433 283C433 293.901 461.195 318.882 460.098 322.691C459 326.5 416.51 352.478 413 360.5C409.5 368.5 409 391.411 391.5 417.5C350.661 478.382 150.614 470.638 103 422.089C73 391.5 73.4997 374.959 73.4997 339C73.4997 333.652 45.9996 318.5 46 314.325C46.0004 310.15 70.5285 300.934 69.5001 293C66 266 69.2147 196.468 82 192.5Z" fill="white"/>
    <path class="effect" d="M124.127 363.855C126.885 365.068 126.333 369.135 123.352 369.57L75.5391 376.545C73.5652 376.833 71.8652 375.15 72.1332 373.173L75.7181 346.74C75.9862 344.763 78.0731 343.594 79.899 344.397L124.127 363.855Z"/>
    <path class="effect" d="M133.51 390.802C136.515 391.026 137.35 395.044 134.684 396.448L91.932 418.963C90.1669 419.892 88.0031 418.872 87.5969 416.919L82.1651 390.803C81.7589 388.85 83.3366 387.051 85.3259 387.2L133.51 390.802Z"/>
    <path class="effect" d="M320.568 219.463L416.658 159.291L428.688 178.502C428.688 178.502 398.882 191.065 379 204C360.431 216.08 342.893 246.38 342.893 246.38L320.568 219.463Z"/>
    <path class="effect" d="M152.895 218.368L84.375 189.75L78.75 207.875C78.75 207.875 101.28 210.593 111.25 218.368C120.931 225.917 134.205 247.663 134.205 247.663L152.895 218.368Z"/>
    <path class="effect" d="M351.521 371.36C348.568 372.101 348.469 376.26 351.382 377.141L406.876 393.933C408.802 394.516 410.745 393.074 410.745 391.061L410.745 360.346C410.745 358.393 408.909 356.961 407.015 357.436L351.521 371.36Z"/>
    <path class="effect" d="M332.694 399.871C329.594 400.037 328.758 404.226 331.556 405.571L381.86 429.732C383.328 430.437 385.091 429.842 385.831 428.392L399.935 400.764C400.986 398.704 399.411 396.28 397.102 396.404L332.694 399.871Z"/>
    <path class="eye-effect" d="M135.528 280.685L134.44 299.404C133.458 316.305 143.627 331.865 159.5 337.75V337.75" stroke-width="20" stroke-linejoin="round"/>
    <path class="eye-effect" d="M288.847 295.012L287.759 313.732C286.777 330.632 296.945 346.192 312.818 352.078V352.078" stroke-width="20" stroke-linejoin="round"/>
    <path class="contour-stroke" d="M121.482 285.998L192.884 290.148L192.116 303.364C190.97 323.081 174.057 338.136 154.34 336.99C134.623 335.844 119.568 318.932 120.714 299.215L121.482 285.998Z" stroke-width="20" stroke-linejoin="round"/>
    <path class="contour-stroke" d="M272.565 292.736L362.444 297.405L361.51 315.381C360.364 337.443 341.55 354.398 319.489 353.252L309.502 352.733C287.441 351.587 270.485 332.773 271.631 310.712L272.565 292.736Z" stroke-width="20" stroke-linejoin="round"/>
    <path class="contour-stroke" d="M213.273 348.248L213.426 346.254L235.362 347.935L235.209 349.929C234.744 355.987 229.458 360.521 223.4 360.056C217.343 359.592 212.809 354.305 213.273 348.248Z" stroke-width="20" stroke-linejoin="round"/>
    <path class="contour-stroke" d="M186.692 397.359C186.692 397.359 196.58 397.058 207.512 387.422C218.444 377.785 221.692 352.905 221.692 352.905" stroke-width="20" stroke-linecap="round" stroke-linejoin="round"/>
    <path class="contour-stroke" d="M253.994 402.519C253.994 402.519 242.602 400.674 234.932 389.524C227.262 378.374 226.179 353.249 226.179 353.249" stroke-width="20" stroke-linecap="round" stroke-linejoin="round"/>
    <path class="contour-stroke" d="M158 220.793C135.5 203.5 96.4999 188 82 192.5C69.2147 196.468 66 266 69.5001 293C70.5285 300.934 46.0004 310.149 46 314.325C45.9996 318.5 73.4997 333.652 73.4997 339C73.4997 374.959 73 391.5 103 422.089C150.614 470.638 350.661 478.382 391.5 417.5C409 391.411 409.5 368.5 413 360.5C416.51 352.478 459 326.5 460.098 322.691C461.195 318.882 433 293.901 433 283C433 260.5 445.01 171.017 425.5 166C405.99 160.983 342.5 195.793 314 220.793" stroke-width="20" stroke-linecap="round" stroke-linejoin="round"/>
    <path class="contour-stroke" d="M131 241.831C131 241.831 174.082 208.5 231.967 208.5C289.853 208.5 342 244.5 342 244.5" stroke-width="20" stroke-linecap="round"/>
    <path class="back" d="M110.345 96.8573C110.094 94.1073 112.12 91.6745 114.87 91.4236L212.247 82.5375C239.747 80.028 264.074 100.287 266.584 127.787L268.043 143.781C268.294 146.531 266.268 148.964 263.518 149.215L166.142 158.101C138.642 160.611 114.314 140.352 111.805 112.852L110.345 96.8573Z" />
    <path class="back" d="M403.817 70.1234C403.566 67.3734 401.133 65.3475 398.383 65.5985L302.775 74.3231C275.275 76.8326 255.017 101.16 257.526 128.66L258.986 144.655C259.237 147.405 261.669 149.431 264.419 149.18L360.027 140.455C387.527 137.946 407.786 113.618 405.276 86.1181L403.817 70.1234Z" />
    <path class="tail-effect" d="M123.117 111.306L209.427 103.43C236.276 100.98 260.027 120.759 262.477 147.608V147.608" stroke-width="20"/>
    <path class="tail-effect" d="M403.314 82.9697L311.776 91.323C284.276 93.8325 264.036 118.366 266.546 145.866V145.866" stroke-width="20"/>
    <path class="contour-stroke" d="M121.764 111.943L120.759 100.928L213.157 92.4962C235.157 90.4886 254.619 106.696 256.626 128.696L257.631 139.711L165.234 148.143C143.234 150.15 123.772 133.943 121.764 111.943Z" stroke-width="20"/>
    <path class="contour-fill" d="M240.876 155.65C235.736 157.669 233.205 163.473 235.223 168.613C237.242 173.754 243.046 176.285 248.186 174.267L240.876 155.65ZM263.242 151.618L271.546 157.191L263.242 151.618ZM248.186 174.267C258.588 170.182 266.162 165.213 271.546 157.191L254.939 146.045C252.635 149.478 249.125 152.411 240.876 155.65L248.186 174.267ZM271.546 157.191C274.146 153.316 274.881 149.106 275.121 146.534C275.25 145.142 275.259 143.938 275.236 143.061C275.224 142.617 275.203 142.244 275.183 141.956C275.173 141.812 275.162 141.688 275.153 141.587C275.149 141.537 275.145 141.492 275.141 141.452C275.139 141.433 275.137 141.415 275.135 141.398C275.134 141.389 275.133 141.381 275.133 141.374C275.132 141.37 275.132 141.366 275.131 141.362C275.131 141.361 275.131 141.358 275.131 141.357C275.131 141.354 275.13 141.352 265.188 142.422C255.245 143.493 255.245 143.49 255.245 143.488C255.245 143.487 255.244 143.484 255.244 143.483C255.244 143.479 255.243 143.476 255.243 143.473C255.242 143.466 255.242 143.46 255.241 143.455C255.24 143.443 255.239 143.433 255.238 143.423C255.236 143.405 255.235 143.391 255.234 143.381C255.232 143.361 255.232 143.358 255.233 143.37C255.235 143.394 255.24 143.474 255.243 143.598C255.25 143.856 255.247 144.243 255.207 144.68C255.106 145.763 254.868 146.151 254.939 146.045L271.546 157.191Z" />
    <path class="contour-stroke" d="M395.319 87.0269L394.313 76.0115L303.685 84.2818C281.685 86.2894 265.478 105.751 267.486 127.751L268.491 138.767L359.119 130.496C381.119 128.489 397.326 109.027 395.319 87.0269Z" stroke-width="20"/>
</svg>
